X:1
T: Cauld Kail
C:
R:Reel
Q: 232
K:Am
M:4/4
L:1/8
|:A2 a2 ge de|c3/2A1/2 A1/2A1/2A Ac BA|G2 g2 de cd|B3/2G1/2 G1/2G1/2G GA BG|
A2 a2 ge de|c3/2A1/2 A1/2A1/2A Ac BA|G2 g2 ed cB|c2 A2 A2 e2|
a3b ae ce|AA ce a2 e^f|a3b gd Bd|GG Bd g2 e2|
a3b ae ce|AA ce a2 e^f|ga g^f ed cB|c2 A2 A2 A2:|
